X:5280
T:Princess Royal
O:england
M:4/4
L:1/4
S:Abingdon
P:AABCBCB
K:G
d/2c/2|BAGd/2c/2|BA Gg|e3/2d/2 ce|d3/2c/2 Bd|
cBAGF/2G/2A/2F/2 Dd/2c/2|\
B/2A/2B/2G/2 AFG2 G:|
e3/2e/2 ed|efg2gfed|B/2A/2G/2B/2 A
2|\
GG A3/2A/2B/2A/2G g3/2f/2|
gde2|dBc2|cB AG|\
F/2G/2A/2F/2Dd/2c/2|B/2A/2B/2G/2 AF|G2 G||
dc |B2A2|G2 dcB2 A2|G2 g2|e3dc2 e2|d
3c|


